X:1
T:Sonatina
T:Sonatina
T:Op 36, No 1
T:Muzio Clementi
T:Public Domain (PianoXML typeset)
T:Public Domain (PianoXML typeset)
T:Public Domain (PianoXML typeset)
C:Muzio Clementi
Z:Public Domain (PianoXML typeset)
%%score { 1 | 2 }
L:1/8
Q:1/4=180
M:2/2
K:C
V:1 treble nm="Piano" snm="Pno."
V:2 bass 
V:1
!f!"^Spiritoso" (c2 ec .G2) .G2 | (c2 ec .G2) .g2 | (fedc BcBc | dcBA G2) z2 |!p! (c2 ec .G2) .G2 | %5
 (e2 ge c2) (ec | dBcA BGA^F |!f! (G)ABc de^fg) | (A2 .a2) .a2 .a2 | (Bcde ^fgab) | %10
 (c2 .c'2) .c'2 .c'2 | (dgbd' c'bag | ^fegf agfe) | (edcB dcBA | G4) z4 ::!p! (B2 dB .G2) .G2 | %16
 (c2 _ec .G2) (g2 | f2 d2 _e2 c2 | =BcdB .G2) .G2 |!f! (gGgG gGgG | gGgG gGgG | d_efd fedc | %22
 [=Bg]2) z2 z4 |!p! (C2 EC .G,2) .G,2 | (C2 EC .G,2) .G2 | (FEDC B,CB,C | DCB,A, G,2) z2 | %27
 (C2 G,C .E2) .E2 |!<(! (E2 CE .G2) .c2 | .[EG]2 .[DF]2 .[CE]2 .[B,D]2!<)! |!f! (CDEF GABc) | %31
 (D2 .d2) .d2 .d2 | (EFGA Bcde) | (F2 .f2) .f2 .f2 | (Gceg fedc) | (agfe dcBA | GAFG EFDE | %37
 C2) z2 z4 :|[K:F][M:3/4][Q:1/4=60]"^Andante" (c4 f2 | A4) (c2 | F4 TG2{FG} | A2) (3FAc (3fff | %42
 d2 (3FBd (3fff | c2 (3(agf (3edc) | (3(cEG) (3(cFA) (3(cFA) | c>(A G2) z2 | %46
 (3[df][df][df] (3[ce][ce][ce] (3[=Bd][Bd][Bd] | g2 (3(GA=B (3cde) | %48
 (3(Afd) (3[Ec][Ec][Ec] (3[D=B][DB][DB] | ([Fd]4 [Ec]2) |!<(! (3ccc!<)!!>(! (3(_edc!>)!!p! (3BAG) | %51
 (3(^FAD) (3(GBD) (3(AcD) |!<(! (3BBB!<)!!>(! (3(dcB!>)!!p! (3AG=F) | %53
 (3(EGC) (3(FAc) (3([Ac][GB][FA]) | (([FA]2 (3[EG]))[Ac][Ac] (3([Ac][GB][FA]) | %55
 (([FA]2 [EG]2)) z2 |"_dolce" (c4 f2 | A4) (c2 | _E4) (TE2{DE} | (3(D)FB"_dolce" (3d)dd d2 | %60
!<(! (3[GB][GB][GB] (3[FA][FA][FA] (3[=EG][EG][EG]!<)! | (c>F) (3(fed (3cBA | (3GBd) F2 (TG2{FG} | %63
 F6) |][K:C][M:3/8]!p![Q:1/8=250]"^Vivace" (e/d/.c).c | g2 (f/e/ | dfB | (c).G).G | (e/d/.c).c | %69
 g2 (f/e/ | d/e/f/e/f/d/ | c) z z | (e/d/.c).c | (g2 f/e/ | dfB | (c).G).G | (e/d/.c).c | %77
 g2 (f/e/ | d/e/f/e/f/d/ | c) z z |!p! (G/F/.E).E | (A/G/.F).F |!f! (D/F/B/F/B/F/ | EGc) | %84
!p! (G/F/.E).E | (e/d/.c).c | (^F/G/A/B/c/A/ | G) z (b/c'/ | d'/c'/b/a/g/^f/ | e/d/c/B/A/G/ | %90
 ^F/G/A/B/c/A/ | G) z (b/c'/ | d'/c'/b/a/g/^f/ | .=f).f!>(! (d'/b/ | .f).f (d'/b/ | f) z z!>)! | %96
!p! .d z z | (B/G/A/B/c/d/ |!pp! (e/)d/.c).c | g2 (f/e/ | dfB | (c).G).G | (e/d/.c).c | g2 (f/e/ | %104
 d/e/f/e/f/d/ | c) z z | (e/d/c).c | g2 (f/e/ | dfB | (c).G).G | (e/d/.c).c | g2 (f/e/ | %112
 d/e/f/e/f/d/ | c) z z |!p! (G/F/.E).E | (A/G/.F).F |!f! (D/F/B/F/B/F/ | E) z (e/f/ | %118
 g/f/e/d/c/B/ | A/G/F/E/D/C/ | B,/C/D/E/F/D/ | C2) z |!p! (G/F/.E).E | (A/G/.F).F | %124
!f! (D/F/B/F/B/F/ | E) z (e/f/ | g/f/e/d/c/B/ | A/G/F/E/D/C/ | B,/C/D/E/F/D/ |!ff! C) z z | %130
 [EG] z z | [EGc] z z | [eg] z z | [egc']2 z |] %134
V:2
 C,2 z2 z4 | C,2 z2 z4 | C,2 z2 C,2 z2 | G,,2 z2 (G,F,E,D, | C,2) z2 z4 | C2 z2 z2 ^F,2 | %6
 G,2 C,2 D,2 D,,2 | G,,2 z2 z4 | (^F,DA,D F,DA,D) | G,2 z2 z4 | A,DCD A,DCD | B,2 z2 z4 | %12
 C2 z2 C,2 z2 | D,2 z2 D,,2 z2 | (G,,B,,D,G, G,,2) z2 :: !stemless!F8 | !stemless!_E8 | (=B,4 C4 | %18
 G,4) z4 | F2 G,2 D2 G,2 | _E2 G,2 C2 G,2 | =B,2 z2 C2 z2 | G,2 G,,2 (G,F,=E,D, | C,2) z2 z4 | %24
 C,2 z2 z4 | C,2 z2 C,2 z2 | G,,2 z2 (G,,F,,E,,D,, | C,,2) z2 z4 | C,2 z2 z4 | G,2 z2 G,,2 z2 | %30
 C,2 z2 z4 | (B,,G,D,G, B,,G,D,G, | C,2) z2 z4 | (D,G,F,G, D,G,F,G, | E,2) z2 z4 | F,2 z2 F,2 z2 | %36
 G,2 z2 G,,2 z2 | (C,,E,,G,,C, C,,2) z2 :|[K:F][M:3/4] (3(F,A,C (3F,A,C (3F,A,C) | %39
 (3F,A,C (3F,A,C (3F,A,C | (3C,F,A, (3C,F,A, (3C,E,G, | (3F,A,C z2 z2 | (3F,B,D z2 z2 | %43
 (3F,A,C (3F,A,C (3F,A,C | (B,2 A,2 F,2) | (3(C,F,A, (3C,E,G,) (3(C,E,G, | G,,4) (F,2 | %47
 (3E,G,C) E,4 | (F,2 G,2 G,,2) | (C,,2 G,,2 C,2) | x6 | (C2 B,2 ^F,2 | G,2) z2 z2 | B,2 A,2 F,2 | %54
 (3(C,C)C C2 z2 | (3(C,C)C (3(CDC (3B,A,G, | (3(F,)A,C (3F,A,C (3F,A,C) | %57
 (3(F,A,C (3F,A,C (3F,A,C) | (3F,A,C (3F,A,C (3F,A,C | B,4 z2 | C,,4 B,,2 | %61
!f! (3(A,,C,F, (3A,,C,F, (3A,,C,F,) | (3(B,,D,G, (3C,F,A, (3C,E,G,) | %63
 (3(F,,A,,C, (3F,C,A,, F,,2) |][K:C][M:3/8] (C,E,G, | C,E,G,) | (C,D,F, | C,E,G,) | (C,E,G, | %69
 C,E,G,) | (G,,D,G, | C,E,G,) |!f! C,E,G, | C,E,G, | C,D,F, | C,E,G, | C,E,G, | C,E,G, | G,,D,G, | %79
 (C,E,G, | C2) z | C2 z | CCC | CCC | C2 z | [A,C]2 z |!f! [D,A,][D,A,][D,A,] | %87
 [G,B,][G,B,][G,B,] | [G,B,][G,B,][G,B,] | [G,C][G,C][G,C] | [G,C][G,C][G,C] | [G,B,][G,B,][G,B,] | %92
 [G,B,][G,B,][G,B,] | .[G,B,] z z | .[G,B,] z z | (G,B,D | G,B,D | G,2) z | (C,E,G, | C,E,G,) | %100
 C,D,F, | C,E,G, | C,E,G, | C,E,G, | G,,D,G, | C,E,G, |!f! C,E,G, | C,E,G, | C,D,F, | C,E,G, | %110
 C,E,G, | C,E,G, | G,,D,G, | (C,E,G, | C2) z | C2 z | CCC | (CG,E, | C,D,E, | F,2) z | G,,2 z | %121
 (C,E,G, | C2) z | C2 z | CCC | (CG,E, | C,D,E, | F,)F,F, | G,,G,,G,, | (C,E,G, | C,E,G, | C,E,G, | %132
 C,E,G, | C,2) z |] %134

